X: 35
T:Lord Moira
% Nottingham Music Database
S:Kevin Briggs
P:AAB
M:4/4
L:1/8
R:Hornpipe
K:G
P:A
B/2A/2|"G"G2G2 B/2d3/2dB|"C"cABG "D7"AG(3FED|"G"G2G2 B/2d3/2d2|\
"C"(3efg"D7"(3fga "G"g2g:|
P:B
d|"G"gabg "D"agf/2d3/2|"C"efge "G"dBA/2G3/2|"G"gabg "D"agf/2d3/2|\
"C"(3efg"D7"(3fga "G"g2(3gab|
"C"c'a"G/b"bg "Am"ag"D"fd|"C"efge "D7"dcB/2A3/2|"G"G2G2 B/2d3/2d2|\
"C"(3efg"D7"(3fga "G"g2g||<end>
<start>
